src/assets/flags/mh.svg

<?xml version="1.0" encoding="UTF-8"?>
<svg xmlns="http://www.w3.org/2000/svg" xmlns:xlink="http://www.w3.org/1999/xlink" width="25px" height="px" viewBox="0 0 25 19" version="1.1">
<g id="surface1">
<path style=" stroke:none;fill-rule:evenodd;fill:rgb(23.137255%,35.294119%,63.921571%);fill-opacity:1;" d="M 0 0 L 24.996094 0 L 24.996094 19 L 0 19 Z M 0 0 "/>
<path style=" stroke:none;fill-rule:evenodd;fill:rgb(88.627452%,68.235296%,34.117648%);fill-opacity:1;" d="M 0 18.484375 L 24.996094 0 L 24.996094 3.445312 L 0 19 Z M 0 18.484375 "/>
<path style=" stroke:none;fill-rule:evenodd;fill:rgb(100%,100%,100%);fill-opacity:1;" d="M 0.875 19 L 25 7.09375 L 24.996094 3.3125 L 0 19 Z M 6.851562 0.601562 L 6.601562 4.671875 L 5.546875 2.074219 L 5.953125 4.835938 L 4.316406 2.605469 L 5.390625 5.148438 L 3.242188 3.464844 L 4.914062 5.585938 L 2.488281 4.492188 L 4.613281 6.125 L 1.96875 5.765625 L 4.46875 6.773438 L 0.546875 7.136719 L 4.476562 7.402344 L 1.988281 8.4375 L 4.605469 8.082031 L 2.484375 9.667969 L 4.945312 8.574219 L 3.265625 10.710938 L 5.398438 9.078125 L 4.34375 11.566406 L 6.046875 9.402344 L 5.585938 12.097656 L 6.660156 9.574219 L 6.902344 13.5625 L 7.28125 9.585938 L 8.207031 12.121094 L 7.855469 9.390625 L 9.550781 11.558594 L 8.433594 9.023438 L 10.566406 10.765625 L 8.871094 8.59375 L 11.40625 9.664062 L 9.164062 8.003906 L 11.894531 8.472656 L 9.277344 7.453125 L 13.34375 7.195312 L 9.28125 6.8125 L 11.957031 5.910156 L 9.183594 6.265625 L 11.472656 4.644531 L 8.894531 5.691406 L 10.675781 3.503906 L 8.503906 5.222656 L 9.546875 2.59375 L 7.863281 4.824219 L 8.226562 2.039062 L 7.222656 4.671875 L 6.847656 0.601562 Z M 6.851562 0.601562 "/>
</g>
</svg>

<svg xmlns="http://www.w3.org/2000/svg" width="25" height="px" viewBox="0 0 25 19"><path d="M0 0h24.996v19H0Zm0 0" style="stroke:none;fill-rule:evenodd;fill:#3b5aa3;fill-opacity:1"/><path d="M0 18.484 24.996 0v3.445L0 19Zm0 0" style="stroke:none;fill-rule:evenodd;fill:#e2ae57;fill-opacity:1"/><path d="M.875 19 25 7.094l-.004-3.782L0 19ZM6.852.602l-.25 4.07-1.055-2.598.406 2.762-1.637-2.23 1.075 2.542-2.149-1.683 1.672 2.12-2.426-1.093 2.125 1.633-2.644-.36 2.5 1.008-3.922.364 3.93.265-2.489 1.035 2.617-.355-2.12 1.586 2.46-1.094-1.68 2.137 2.133-1.633-1.054 2.488 1.703-2.164-.461 2.696L6.66 9.574l.242 3.989.38-3.977.925 2.535-.352-2.73 1.696 2.168-1.117-2.536 2.132 1.743-1.695-2.172 2.535 1.07-2.242-1.66 2.73.469-2.617-1.02 4.067-.258-4.063-.383 2.676-.902-2.773.356 2.289-1.621L8.895 5.69l1.78-2.187-2.171 1.719 1.043-2.63-1.684 2.231.364-2.785-1.004 2.633-.375-4.07Zm0 0" style="stroke:none;fill-rule:evenodd;fill:#fff;fill-opacity:1"/></svg>
